X:1019
T:Astley's Hornpipe
T:Ashley's Hornpipe
R:Hornpipe
C:Trad.
O:England
Z:Paul Hardy's Session Tunebook 2015 (see www.paulhardy.net). Creative Commons cc by-nc-sa licenced.
M:4/4
L:1/8
Q:1/4=160
K:G
"G"GABc dBAG|"Em"gfge "C"e2 dc|"G"BdBG "Am"cecA|"G"BdBG GFED|
"G"GABc dBAG|"Em"gfge "C"e2dc|"G"BdBG "Am"cecA|"G"G2F2 G4:|
|:"G"defg "D"fafd|"Em"gbge "D"fafd|"G"defg "D"afed|"G"BdBG "D"FAFD|
"G"BdBG "Am"cecA|"D"fafd "Em"gbge|"G"dgfe "D"dcBA|"G"G2 F2 G4:|

